src/load-b.svg

<?xml version="1.0" encoding="utf-8"?>
<!-- Generated by IcoMoon.io -->
<!DOCTYPE svg PUBLIC "-//W3C//DTD SVG 1.1//EN" "http://www.w3.org/Graphics/SVG/1.1/DTD/svg11.dtd">
<svg version="1.1" xmlns="http://www.w3.org/2000/svg" xmlns:xlink="http://www.w3.org/1999/xlink" width="512" height="512" viewBox="0 0 512 512">
<path fill="#000000" d="M288 160c0 17.7-14.3 32-32 32v0c-17.7 0-32-14.3-32-32v-96c0-17.7 14.3-32 32-32v0c17.7 0 32 14.3 32 32v96z"></path>
<path fill="#000000" d="M256 320c-17.7 0-32 14.3-32 32v96c0 17.7 14.3 32 32 32s32-14.3 32-32v-96c0-17.7-14.3-32-32-32v0z"></path>
<path fill="#000000" d="M448 224h-96c-17.7 0-32 14.3-32 32s14.3 32 32 32h96c17.7 0 32-14.3 32-32s-14.3-32-32-32v0z"></path>
<path fill="#000000" d="M160 224h-96c-17.7 0-32 14.3-32 32s14.3 32 32 32h96c17.7 0 32-14.3 32-32s-14.3-32-32-32v0z"></path>
<path fill="#000000" d="M346.5 210.7c-12.5 12.5-32.8 12.5-45.3 0v0c-12.5-12.5-12.5-32.8 0-45.3l67.9-67.9c12.5-12.5 32.8-12.5 45.3 0v0c12.5 12.5 12.5 32.8 0 45.3l-67.9 67.9z"></path>
<path fill="#000000" d="M210.7 301.3c-12.5-12.5-32.8-12.5-45.3 0l-67.9 67.9c-12.5 12.5-12.5 32.8 0 45.3s32.8 12.5 45.3 0l67.9-67.9c12.5-12.6 12.5-32.8 0-45.3v0z"></path>
<path fill="#000000" d="M414.4 369.1l-67.9-67.9c-12.5-12.5-32.8-12.5-45.3 0s-12.5 32.8 0 45.3l67.9 67.9c12.5 12.5 32.8 12.5 45.3 0s12.5-32.8 0-45.3v0z"></path>
<path fill="#000000" d="M210.7 165.5l-67.9-67.9c-12.5-12.5-32.8-12.5-45.3 0s-12.5 32.8 0 45.3l67.9 67.9c12.5 12.5 32.8 12.5 45.3 0s12.5-32.8 0-45.3v0z"></path>
</svg>

<?xml version="1.0" encoding="utf-8"?>
<!-- Generator: Adobe Illustrator 16.2.1, SVG Export Plug-In . SVG Version: 6.00 Build 0)  -->
<!DOCTYPE svg PUBLIC "-//W3C//DTD SVG 1.1//EN" "http://www.w3.org/Graphics/SVG/1.1/DTD/svg11.dtd">
<svg version="1.1" id="Layer_1" xmlns="http://www.w3.org/2000/svg" xmlns:xlink="http://www.w3.org/1999/xlink" x="0px" y="0px"
	 width="512px" height="512px" viewBox="0 0 512 512" style="enable-background:new 0 0 512 512;" xml:space="preserve">
<g>
	<path d="M288,160c0,17.7-14.3,32-32,32l0,0c-17.7,0-32-14.3-32-32V64c0-17.7,14.3-32,32-32l0,0c17.7,0,32,14.3,32,32V160z"/>
	<path d="M256,320c-17.7,0-32,14.3-32,32v96c0,17.7,14.3,32,32,32s32-14.3,32-32v-96C288,334.3,273.7,320,256,320L256,320z"/>
	<path d="M448,224h-96c-17.7,0-32,14.3-32,32s14.3,32,32,32h96c17.7,0,32-14.3,32-32S465.7,224,448,224L448,224z"/>
	<path d="M160,224H64c-17.7,0-32,14.3-32,32s14.3,32,32,32h96c17.7,0,32-14.3,32-32S177.7,224,160,224L160,224z"/>
	<path d="M346.5,210.7c-12.5,12.5-32.8,12.5-45.3,0l0,0c-12.5-12.5-12.5-32.8,0-45.3l67.9-67.9c12.5-12.5,32.8-12.5,45.3,0l0,0
		c12.5,12.5,12.5,32.8,0,45.3L346.5,210.7z"/>
	<path d="M210.7,301.3c-12.5-12.5-32.8-12.5-45.3,0l-67.9,67.9c-12.5,12.5-12.5,32.8,0,45.3c12.5,12.5,32.8,12.5,45.3,0l67.9-67.9
		C223.2,334,223.2,313.8,210.7,301.3L210.7,301.3z"/>
	<path d="M414.4,369.1l-67.9-67.9c-12.5-12.5-32.8-12.5-45.3,0c-12.5,12.5-12.5,32.8,0,45.3l67.9,67.9c12.5,12.5,32.8,12.5,45.3,0
		C426.9,401.9,426.9,381.6,414.4,369.1L414.4,369.1z"/>
	<path d="M210.7,165.5l-67.9-67.9c-12.5-12.5-32.8-12.5-45.3,0c-12.5,12.5-12.5,32.8,0,45.3l67.9,67.9c12.5,12.5,32.8,12.5,45.3,0
		S223.2,178,210.7,165.5L210.7,165.5z"/>
</g>
</svg>
